X: 22918
T: Larry McDonagh's
R: jig
M: 6/8
K: Amajor
|:E2F A2B|c2c cBA|B2c B2A|F3 BAF|E2F A2B|c3 cde|fec ecB|1 A3 A2F:|2 A3 A2c||
|:e3 cBA|efe cBA|efe cBA|F3 F2A|efe cBA|efe cde|fec ecB|1 A3 A2c:|2 A3 A2F||

